X:486
T: Es wollten drei Knaben spazieren gehn (5-82), S. 131
N: P0756
O: Lothringen
S: MERKELBACH-PINCK, Angelika: Verklingende Weisen, Bd 5, Kassel 1962]
R: Liebesklage]
M: 6/8
L: 1/8
K: C
D | DFAAFF | EFED3 |
_B3BAF | A2AG2
G | ccGA2A | G2FE2
G | GGGAGF | E2CD2
G | GGCE2D | C2z3

@@@ Tune index: 8036
